Yosa-Max-Dark/actions/22x22/akonadiconsole.svg

<?xml version="1.0" encoding="UTF-8"?>
<svg id="svg4" version="1.1" viewBox="0 0 22 22" xmlns="http://www.w3.org/2000/svg">
 <path id="rect812" d="m2 3v16h18v-16zm2 2h14v12h-14z" style="color-rendering:auto;color:#000000;dominant-baseline:auto;fill:#dfdfdf;font-feature-settings:normal;font-variant-alternates:normal;font-variant-caps:normal;font-variant-ligatures:normal;font-variant-numeric:normal;font-variant-position:normal;image-rendering:auto;isolation:auto;mix-blend-mode:normal;paint-order:stroke fill markers;shape-padding:0;shape-rendering:auto;solid-color:#000000;text-decoration-color:#000000;text-decoration-line:none;text-decoration-style:solid;text-indent:0;text-orientation:mixed;text-transform:none;white-space:normal"/>
 <path id="path847" d="m11.999569 10.999868h-3v1h3z" style="fill:#dfdfdf"/>
 <g id="g826" transform="translate(-.582616 -1.0301234)" style="fill:#dfdfdf">
  <path id="path845" d="m9.522779 8.8861153c-0.0118812-0.7965687-0.4752475-1.3000001-1.2237624-1.3446079v-0.3441177h-0.4039604v0.3441177c-0.7663365 0.076471-1.2118811 0.5416667-1.2118811 1.2553922 0 0.707353 0.409901 1.159804 1.2118811 1.3573534v1.357352c-0.3326732-0.063725-0.5168316-0.324999-0.5346534-0.771078h-0.7782179v0.05736c0 0.465197 0.1782179 0.841177 0.5108912 1.102451 0.2257426 0.172059 0.4455445 0.254903 0.8019801 0.293137v0.669118h0.4039604v-0.669118c0.3267327-0.03823 0.5762377-0.127451 0.7722772-0.261274 0.3207921-0.223039 0.5108911-0.630883 0.5108911-1.115196 0-0.700981-0.3564356-1.0769611-1.2831683-1.3509807v-1.2808894c0.3029703 0.044608 0.4752476 0.312255 0.4633663 0.7009804zm-1.6277228 0.452451c-0.3326732-0.1147058-0.4811881-0.2867647-0.4811881-0.5671568 0-0.3313727 0.1544554-0.5161766 0.4811881-0.5862746zm0.4039604 0.9240197c0.3326733 0.108334 0.49901 0.325 0.49901 0.630882 0 0.318628-0.1663367 0.528922-0.49901 0.618137z" style="fill:#dfdfdf"/>
  <path id="path814" d="m7.8461226 7.0299916v5.9999994h0.4721247v-5.9999993z" style="color-rendering:auto;color:#000000;dominant-baseline:auto;fill:#dfdfdf;font-feature-settings:normal;font-variant-alternates:normal;font-variant-caps:normal;font-variant-ligatures:normal;font-variant-numeric:normal;font-variant-position:normal;image-rendering:auto;isolation:auto;mix-blend-mode:normal;paint-order:stroke fill markers;shape-padding:0;shape-rendering:auto;solid-color:#000000;text-decoration-color:#000000;text-decoration-line:none;text-decoration-style:solid;text-indent:0;text-orientation:mixed;text-transform:none;white-space:normal"/>
 </g>
</svg>

<?xml version="1.0" encoding="UTF-8" standalone="no"?>
<svg
   xmlns:dc="http://purl.org/dc/elements/1.1/"
   xmlns:cc="http://creativecommons.org/ns#"
   xmlns:rdf="http://www.w3.org/1999/02/22-rdf-syntax-ns#"
   xmlns:svg="http://www.w3.org/2000/svg"
   xmlns="http://www.w3.org/2000/svg"
   xmlns:sodipodi="http://sodipodi.sourceforge.net/DTD/sodipodi-0.dtd"
   xmlns:inkscape="http://www.inkscape.org/namespaces/inkscape"
   id="svg4"
   version="1.1"
   viewBox="0 0 22 22"
   sodipodi:docname="dialog-scripts.svg"
   inkscape:version="0.92.2 2405546, 2018-03-11">
  <sodipodi:namedview
     pagecolor="#ffffff"
     bordercolor="#666666"
     borderopacity="1"
     objecttolerance="10"
     gridtolerance="10"
     guidetolerance="10"
     inkscape:pageopacity="0"
     inkscape:pageshadow="2"
     inkscape:window-width="1366"
     inkscape:window-height="699"
     id="namedview7"
     showgrid="false"
     inkscape:zoom="22.136364"
     inkscape:cx="11"
     inkscape:cy="11"
     inkscape:window-x="0"
     inkscape:window-y="0"
     inkscape:window-maximized="1"
     inkscape:current-layer="svg4" />
  <metadata
     id="metadata10">
    <rdf:RDF>
      <cc:Work
         rdf:about="">
        <dc:format>image/svg+xml</dc:format>
        <dc:type
           rdf:resource="http://purl.org/dc/dcmitype/StillImage" />
        <dc:title />
      </cc:Work>
    </rdf:RDF>
  </metadata>
  <defs
     id="defs8" />
  <g
     id="text878"
     style="font-style:normal;font-variant:normal;font-weight:normal;font-stretch:normal;font-size:5.69474459px;line-height:1.25;font-family:'xos4 Terminus';-inkscape-font-specification:'xos4 Terminus';letter-spacing:0px;word-spacing:0px;fill:#ffffff;fill-opacity:1;stroke:none;stroke-width:0.99999994"
     transform="matrix(1.0660963,0,0,0.93800157,24.330078,-1.3984375)"
     aria-label="$" />
  <path
     style="color:#000000;font-style:normal;font-variant:normal;font-weight:normal;font-stretch:normal;font-size:medium;line-height:normal;font-family:sans-serif;font-variant-ligatures:normal;font-variant-position:normal;font-variant-caps:normal;font-variant-numeric:normal;font-variant-alternates:normal;font-feature-settings:normal;text-indent:0;text-align:start;text-decoration:none;text-decoration-line:none;text-decoration-style:solid;text-decoration-color:#000000;letter-spacing:normal;word-spacing:normal;text-transform:none;writing-mode:lr-tb;direction:ltr;text-orientation:mixed;dominant-baseline:auto;baseline-shift:baseline;text-anchor:start;white-space:normal;shape-padding:0;clip-rule:nonzero;display:inline;overflow:visible;visibility:visible;opacity:1;isolation:auto;mix-blend-mode:normal;color-interpolation:sRGB;color-interpolation-filters:linearRGB;solid-color:#000000;solid-opacity:1;vector-effect:none;fill:#dfdfdf;fill-opacity:1;fill-rule:nonzero;stroke:none;stroke-width:2;stroke-linecap:square;stroke-linejoin:miter;stroke-miterlimit:4;stroke-dasharray:none;stroke-dashoffset:0;stroke-opacity:1;paint-order:stroke fill markers;color-rendering:auto;image-rendering:auto;shape-rendering:auto;text-rendering:auto;enable-background:accumulate"
     d="M 2,3 V 4 19 H 20 V 3 Z M 4,5 H 18 V 17 H 4 Z"
     id="rect812"
     inkscape:connector-curvature="0" />
  <path
     inkscape:connector-curvature="0"
     id="path847"
     style="font-style:normal;font-variant:normal;font-weight:bold;font-stretch:normal;font-size:medium;line-height:1.25;font-family:'Nimbus Sans';-inkscape-font-specification:'Nimbus Sans Bold';letter-spacing:0px;word-spacing:0px;fill:#dfdfdf;fill-opacity:1;stroke:none;stroke-width:1"
     d="m 11.999569,10.999868 h -3 v 1 h 3 z" />
  <g
     id="g826"
     transform="translate(-0.582616,-1.0301234)"
     style="fill:#dfdfdf;fill-opacity:1">
    <path
       d="M 9.522779,8.8861153 C 9.5108978,8.0895466 9.0475315,7.5861152 8.2990166,7.5415074 V 7.1973897 H 7.8950562 v 0.3441177 c -0.7663365,0.076471 -1.2118811,0.5416667 -1.2118811,1.2553922 0,0.707353 0.409901,1.159804 1.2118811,1.3573534 v 1.357352 C 7.562383,11.44788 7.3782246,11.186606 7.3604028,10.740527 H 6.5821849 v 0.05736 c 0,0.465197 0.1782179,0.841177 0.5108912,1.102451 0.2257426,0.172059 0.4455445,0.254903 0.8019801,0.293137 v 0.669118 h 0.4039604 v -0.669118 c 0.3267327,-0.03823 0.5762377,-0.127451 0.7722772,-0.261274 0.3207921,-0.223039 0.5108911,-0.630883 0.5108911,-1.115196 0,-0.700981 -0.3564356,-1.0769611 -1.2831683,-1.3509807 V 8.1851349 c 0.3029703,0.044608 0.4752476,0.312255 0.4633663,0.7009804 z M 7.8950562,9.3385663 C 7.562383,9.2238605 7.4138681,9.0518016 7.4138681,8.7714095 c 0,-0.3313727 0.1544554,-0.5161766 0.4811881,-0.5862746 z m 0.4039604,0.9240197 c 0.3326733,0.108334 0.49901,0.325 0.49901,0.630882 0,0.318628 -0.1663367,0.528922 -0.49901,0.618137 z"
       style="font-style:normal;font-variant:normal;font-weight:bold;font-stretch:normal;font-size:medium;line-height:1.25;font-family:'Nimbus Sans';-inkscape-font-specification:'Nimbus Sans Bold';letter-spacing:0px;word-spacing:0px;fill:#dfdfdf;fill-opacity:1;stroke:none;stroke-width:0.99999994"
       id="path845"
       inkscape:connector-curvature="0" />
    <path
       inkscape:connector-curvature="0"
       id="path814"
       d="m 7.8461226,7.0299916 v 0.491835 5.0163294 0.491835 H 8.3182473 V 12.538156 7.5218267 7.0299917 Z"
       style="color:#000000;font-style:normal;font-variant:normal;font-weight:normal;font-stretch:normal;font-size:medium;line-height:normal;font-family:sans-serif;font-variant-ligatures:normal;font-variant-position:normal;font-variant-caps:normal;font-variant-numeric:normal;font-variant-alternates:normal;font-feature-settings:normal;text-indent:0;text-align:start;text-decoration:none;text-decoration-line:none;text-decoration-style:solid;text-decoration-color:#000000;letter-spacing:normal;word-spacing:normal;text-transform:none;writing-mode:lr-tb;direction:ltr;text-orientation:mixed;dominant-baseline:auto;baseline-shift:baseline;text-anchor:start;white-space:normal;shape-padding:0;clip-rule:nonzero;display:inline;overflow:visible;visibility:visible;opacity:1;isolation:auto;mix-blend-mode:normal;color-interpolation:sRGB;color-interpolation-filters:linearRGB;solid-color:#000000;solid-opacity:1;vector-effect:none;fill:#dfdfdf;fill-opacity:1;fill-rule:nonzero;stroke:none;stroke-width:1;stroke-linecap:square;stroke-linejoin:miter;stroke-miterlimit:4;stroke-dasharray:none;stroke-dashoffset:0;stroke-opacity:1;paint-order:stroke fill markers;color-rendering:auto;image-rendering:auto;shape-rendering:auto;text-rendering:auto;enable-background:accumulate" />
  </g>
</svg>
